X:1
T:Je ne faitz rien
T:Claudin de Sermisy
T:Source : Premier livre contenant 31 chansons à 4, eslevées de plusieurs livres---Paris---P.Attaignant---1535. Editor : André Vierendeels ( 24/04/18). Notes : Original clefs : C1, C3, C3, F3 Original note values have been halved Editorial accidentals above the staff
T:Je ne faitz rien
T:©
T:©
T:©
C:Claudin de Sermisy
Z:©
%%score [ 1 2 3 4 ]
L:1/8
Q:1/4=120
M:2/2
K:C
V:1 treble nm="Soprano" snm="S"
V:2 treble nm="Alto" snm="A"
V:3 treble-8 nm="Tenor" snm="T"
V:4 bass nm="Bass" snm="B"
V:1
 z4 G4 | G2 G2 c4 | A4 G2 G2- | GFED C4 | z2 G2 A2 c2- | c2 BA B4 | A4 A2 A2 | G3 A B2 c2 | %8
w: Je|ne faitz rien|que re- que-|* * * * rir,|sans ac- que-|* * * rir,|le don d'a-|mou- * * reu-|
 d2 e2 c2 d2- | d2 c4 B2 | c4 G4 | E2 E2 G3 F | E2 DC D4 | C4 c4 | B2 c2 d2 e2 | dc c4 B2 | %16
w: se ly- es- *||se, las,|ma mais- tres- *||se, dic-|tes quant est- *||
 c4 z2 G2 | A2 B2 c2 B2- | B2 A4 G2 | A4 z2 G2 | c4 ABcA | B4 z2 B2 | A2 A2 G2 A2- | AG G4 F2 | %24
w: ce qu'il|vous plai- ra me|_ se- cou-|rir, ie|ne fais _ _ _|rien, ie|ne fais rien que-|* * re- que-|
 G4 z2 G2 | c4 ABcA | B4 z2 B2 | A2 A2 G2 A2- | AG G4 F2 | G8 |] %30
w: rir, ie|ne fais _ _ _|rien, ie|ne fais rien que|_ _ re- que-|rir.|
V:2
 z4 G4 | E2 E2 C2 G2 | F4 D4 | E4 F4 | D2 E2 F3 E/F/ | G4 z2 D2 | F2 F2 C2 D2 | E4 D2 E2 | %8
w: Je|ne faitz rien que|re- que-|rir, sans|ac- que- * * *|rir, le|don d'a- mou- reu-|se ly- es-|
 F2 E4 D2 | E2 F2 G4 | z2 E2 E2 D2 | G3 F E2 D2- | DC C4 B,2 | C2 F2 G2 F2 | D2 E2 FE G2- | %15
w: |* * se,|las, ma mais-|tres- * * *||se, dic- tes quant|_ _ _ _ _|
 G2 F2 G4 | E4 z2 E2 | F2 G2 G2 F2 | E2 D2 E4 | C2 E2 E4 | C3 D EDEF | G4 z2 G2 | F2 F2 D2 E2- | %23
w: * est- *|ce qu'il|vous plai- ra me|se- * cou-|rir, ie ne|fais _ _ _ _ _|rien, ie|ne fais rien que|
 E2 C2 D4 | B,2 D2 E4 | C3 D EDEF | G4 z2 G2 | F2 F2 D2 E2- | E2 C2 D4 | B,8 |] %30
w: _ re- que-|rir, ie ne|fais _ _ _ _ _|rien, ie|ne fais rien que|_ re- que-|rir.|
V:3
 G4 G2 G2 | c4 e4 | d2 c4 B2 | c2 G2 A2 c2- | cB/A/ B2 c4 | d8- | d4 z2 A2 | c2 c2 B2 G2 | %8
w: Je ne faitz|rien que|re- que- *|rir, sans ac- que-||rir,|_ le|don d'a- mou- reu-|
 ABcd e2 f2 | c4 d4 | c4 z4 | z2 c2 c2 B2 | c4 G4 | z2 A2 G2 A2 | B2 G2 ABcA | B2 c2 d4 | %16
w: se _ _ _ _ ly-|es- *|se,|Las, ma mais-|tres- se,|dic- tes quant|est- * * * * *||
 c2 G2 A2 B2 | c2 d2 e2 d2 | c2 BA B4 | A4 z2 e2 | e4 c4 | d4 z2 d2 | d2 c2 B2 c2- | cB G2 A4 | %24
w: ce qu'il vous plai-|ra me se- cou-||rir, ie|ne fais|rien, ie|ne fais rien que|_ _ re- que-|
 G4 z2 e2 | e4 c4 | d4 z2 d2 | d2 c2 B2 c2- | cB G2 A4 | G8 |] %30
w: rir, ie|ne fais|rien, ie|ne fais rien que|_ _ re- que-|rir.|
V:4
 G,4 E,2 E,2 | C,6 C,2 | F,4 G,4 | C,4 F,4 | G,4 F,2 A,2 | G,8 | z2 D,2 F,2 F,2 | %7
w: Je ne faitz|rien que|re- que-|rir, sans|ac- que- *|rir,|le don d'a-|
 C,D,E,F, G,2 E,2 | D,2 C,2 C2 B,2 | A,4 G,4 | C,2 C2 C2 B,2 | C4 G,4 | C,4 z4 | F,4 E,2 F,2 | %14
w: mou- * * * * reu-|* se ly- es-||se, Las, ma mais-|tres- *|se,|dic- tes quant|
"^#" G,2 E,2 D,2 C,2 | G,2 A,2 G,4 | C,4 z2 E,2 | A,2 G,2 C,2 D,2 | E,2 F,2 E,4 |"^#" z2 C2 C4 | %20
w: est- * * *||ce qu'il|vous plai- ra me|se- cou- rir,|ie ne|
 A,8 | G,4 z2 G,2 | D,2 F,2 G,2 C,2 | E,2 E,2 D,4 | z2 G,2 C4 | A,8 | G,4 z2 G,2 | %27
w: fais|rien, ie|ne fais rien que|re- que- rir,|ie ne|fais|rien, ie|
 D,2 F,2 G,2 C,2 | E,4 D,4 | G,8 |] %30
w: ne fais rien que|re- que-|rir.|

